src/icons/qbt-theme/build-icons/icons/speedometer.svg

<svg xmlns="http://www.w3.org/2000/svg" viewBox="0 0 32 32">
  <path fill="#375273" d="M30.3 19.1c0 2.8-.8 5.4-2.3 7.7-.2.3-.5.5-.9.5H4.8c-.4 0-.7-.2-.9-.5-1.5-2.4-2.3-4.9-2.3-7.7 0-1.9.4-3.8 1.1-5.6.8-1.8 1.8-3.3 3.1-4.6 1.3-1.3 2.8-2.3 4.6-3.1C12.2 5 14 4.7 16 4.7c1.9 0 3.8.4 5.6 1.1 1.8.8 3.3 1.8 4.6 3.1 1.3 1.3 2.3 2.8 3.1 4.6s1 3.6 1 5.6zM7.2 20.5c.4-.4.6-.9.6-1.4 0-.6-.2-1-.6-1.4-.4-.5-.9-.7-1.4-.7s-1 .2-1.4.6c-.4.4-.6.9-.6 1.4 0 .6.2 1 .6 1.4.4.4.9.6 1.4.6s1-.1 1.4-.5zm3.1-7.1c.4-.4.6-.9.6-1.4s-.2-1-.6-1.4c-.4-.4-.9-.6-1.4-.6-.6 0-1 .2-1.4.6-.4.4-.6.9-.6 1.4s.2 1 .6 1.4c.3.4.8.6 1.3.6.6 0 1.1-.2 1.5-.6zm7.4 6.2l1.6-6.1c.1-.3 0-.5-.1-.8-.1-.2-.3-.4-.6-.5-.3-.1-.5 0-.8.1-.2.1-.4.4-.5.6L15.7 19c-.6.1-1.2.3-1.7.7-.5.4-.8.9-1 1.6-.2.8-.1 1.6.3 2.3.4.7 1.1 1.2 1.9 1.4.8.2 1.6.1 2.3-.3.7-.4 1.2-1.1 1.4-1.9.2-.6.1-1.3-.1-1.9-.2-.5-.5-.9-1.1-1.3zm-.3-9.3c.4-.4.6-.9.6-1.5s-.2-1-.6-1.4c-.4-.4-.8-.6-1.4-.6-.6 0-1 .2-1.4.6-.4.4-.6.9-.6 1.4 0 .6.2 1 .6 1.4.4.4.9.6 1.4.6.6.1 1-.1 1.4-.5zm7.2 3.1c.4-.4.6-.9.6-1.4s-.2-1-.6-1.4c-.4-.4-.9-.6-1.4-.6-.6 0-1 .2-1.4.6-.4.4-.6.9-.6 1.4s.2 1 .6 1.4c.4.4.9.6 1.4.6.5 0 1-.2 1.4-.6zm3.1 7.1c.4-.4.6-.9.6-1.4 0-.6-.2-1-.6-1.4-.4-.4-.9-.6-1.4-.6-.6 0-1 .2-1.4.6-.4.4-.6.9-.6 1.4 0 .6.2 1 .6 1.4.4.4.9.6 1.4.6.5 0 1-.2 1.4-.6z"/>
</svg>

<?xml version="1.0" encoding="utf-8"?>
<!-- Generator: Adobe Illustrator 18.0.0, SVG Export Plug-In . SVG Version: 6.00 Build 0)  -->
<!DOCTYPE svg PUBLIC "-//W3C//DTD SVG 1.1//EN" "http://www.w3.org/Graphics/SVG/1.1/DTD/svg11.dtd">
<svg version="1.1" id="Layer_1" xmlns="http://www.w3.org/2000/svg" xmlns:xlink="http://www.w3.org/1999/xlink" x="0px" y="0px"
	 viewBox="0 0 32 32" enable-background="new 0 0 32 32" xml:space="preserve">
<g>
	<path fill="#375273" d="M30.3,19.1c0,2.8-0.8,5.4-2.3,7.7c-0.2,0.3-0.5,0.5-0.9,0.5H4.8c-0.4,0-0.7-0.2-0.9-0.5
		c-1.5-2.4-2.3-4.9-2.3-7.7c0-1.9,0.4-3.8,1.1-5.6c0.8-1.8,1.8-3.3,3.1-4.6c1.3-1.3,2.8-2.3,4.6-3.1c1.8-0.8,3.6-1.1,5.6-1.1
		c1.9,0,3.8,0.4,5.6,1.1c1.8,0.8,3.3,1.8,4.6,3.1c1.3,1.3,2.3,2.8,3.1,4.6S30.3,17.1,30.3,19.1z M7.2,20.5c0.4-0.4,0.6-0.9,0.6-1.4
		c0-0.6-0.2-1-0.6-1.4C6.8,17.2,6.3,17,5.8,17s-1,0.2-1.4,0.6c-0.4,0.4-0.6,0.9-0.6,1.4c0,0.6,0.2,1,0.6,1.4
		c0.4,0.4,0.9,0.6,1.4,0.6S6.8,20.9,7.2,20.5z M10.3,13.4c0.4-0.4,0.6-0.9,0.6-1.4s-0.2-1-0.6-1.4c-0.4-0.4-0.9-0.6-1.4-0.6
		c-0.6,0-1,0.2-1.4,0.6c-0.4,0.4-0.6,0.9-0.6,1.4s0.2,1,0.6,1.4C7.8,13.8,8.3,14,8.8,14C9.4,14,9.9,13.8,10.3,13.4z M17.7,19.6
		l1.6-6.1c0.1-0.3,0-0.5-0.1-0.8c-0.1-0.2-0.3-0.4-0.6-0.5c-0.3-0.1-0.5,0-0.8,0.1c-0.2,0.1-0.4,0.4-0.5,0.6l-1.6,6.1
		c-0.6,0.1-1.2,0.3-1.7,0.7c-0.5,0.4-0.8,0.9-1,1.6c-0.2,0.8-0.1,1.6,0.3,2.3c0.4,0.7,1.1,1.2,1.9,1.4c0.8,0.2,1.6,0.1,2.3-0.3
		c0.7-0.4,1.2-1.1,1.4-1.9c0.2-0.6,0.1-1.3-0.1-1.9C18.6,20.4,18.3,20,17.7,19.6z M17.4,10.3C17.8,9.9,18,9.4,18,8.8
		c0-0.6-0.2-1-0.6-1.4C17,7,16.6,6.8,16,6.8c-0.6,0-1,0.2-1.4,0.6C14.2,7.8,14,8.3,14,8.8c0,0.6,0.2,1,0.6,1.4
		c0.4,0.4,0.9,0.6,1.4,0.6C16.6,10.9,17,10.7,17.4,10.3z M24.6,13.4c0.4-0.4,0.6-0.9,0.6-1.4s-0.2-1-0.6-1.4
		c-0.4-0.4-0.9-0.6-1.4-0.6c-0.6,0-1,0.2-1.4,0.6c-0.4,0.4-0.6,0.9-0.6,1.4s0.2,1,0.6,1.4c0.4,0.4,0.9,0.6,1.4,0.6
		C23.7,14,24.2,13.8,24.6,13.4z M27.7,20.5c0.4-0.4,0.6-0.9,0.6-1.4c0-0.6-0.2-1-0.6-1.4c-0.4-0.4-0.9-0.6-1.4-0.6
		c-0.6,0-1,0.2-1.4,0.6c-0.4,0.4-0.6,0.9-0.6,1.4c0,0.6,0.2,1,0.6,1.4c0.4,0.4,0.9,0.6,1.4,0.6C26.8,21.1,27.3,20.9,27.7,20.5z"/>
</g>
</svg>
